!!!COM: Giovannelli, Ruggero
!!!CDT: ~1560///-1625/01/07/
!!!OTL: Dulce est
!!!OTL2: Occhi miei
!!!ONM: No. 16
!!!SMS: Musica tolta da i madrigali di Claudio Monteverdi, e d'altri autori, e fatta spirituale
!!!PPR: A. Coppini, ed.
!!!PPP: Milan
!!!PDT: 1607
!!!URL: http://www.jpj.dk/coppini.htm
!!!AIN: contrafacta
**kern	**kern	**kern	**kern	**kern
*staff5	*staff4	*staff3	*staff2	*staff1
*Ivox	*Ivox	*Ivox	*Ivox	*Ivox
!basso	!tenore	!quinto	!alto	!canto
*clefF4	*clefGv2	*clefGv2	*clefG2	*clefG2
*k[]	*k[]	*k[]	*k[]	*k[]
*M4/4	*M4/4	*M4/4	*M4/4	*M4/4
=1-	=1-	=1-	=1-	=1-
1r	[1A	[1c#	[1e	[1a
=2	=2	=2	=2	=2
1r	2A/]	2c#\]	2e/]	2a/]
.	2D/	2d\	2f/	2a/
=3	=3	=3	=3	=3
1r	2E/	2B\	2e/	2g#/
.	4E/	4B\	4e/	4g#/
.	4A/	4c\	4e/	4a/
=4	=4	=4	=4	=4
1r	2G/	2d\	2g/	2b\
.	2G/	2d\	2g/	2b\
=5	=5	=5	=5	=5
1r	4r	4r	4r	4r
.	4G/	4d\	4g/	4b\
.	4G/	4d\	4g/	4b\
.	4E/	4e\	4g/	4cc\
=6	=6	=6	=6	=6
1r	2D/	2f\	2a/	2dd\
.	2G/	2d\	2g/	2b-\
=7	=7	=7	=7	=7
1r	1A	2c#\	2e/	1a
.	.	4r	4r	.
.	.	4c#\	4e/	.
=8	=8	=8	=8	=8
1r	4E/	2e\	2.g/	4r
.	2G/	.	.	4b\
.	.	2d\	.	[2dd\
.	4F/	.	4a/	.
=9	=9	=9	=9	=9
1r	1E	1e	4g#/	4dd\]
.	.	.	2a/	4cc\
.	.	.	.	2b\
.	.	.	4g#/	.
=10	=10	=10	=10	=10
1r	2A/	1e	1a	1a
.	[2A/	.	.	.
=11	=11	=11	=11	=11
[1D	2A/]	2r	[1f#	2r
.	2D/	[2A/	.	[2a/
=12	=12	=12	=12	=12
2D\]	1d	2A/]	2f#/]	2a/]
2GG/	.	2d\	2g/	2b-\
=13	=13	=13	=13	=13
2AA/	1r	2c#\	2e/	2a/
4AA/	.	4c#\	4e/	4a/
4D\	.	4d\	4f#/	4a/
=14	=14	=14	=14	=14
2C/	1r	2e\	2g/	2cc\
2C/	.	2e\	2g/	2cc\
=15	=15	=15	=15	=15
4r	1r	4r	4r	4r
4C/	.	4e\	4g/	4cc\
4C/	.	4e\	4e/	4cc\
4AA/	.	4c\	4f/	4cc\
=16	=16	=16	=16	=16
2GG/	1r	2d\	2g/	2b\
2D\	.	2d\	2f/	2a/
=17	=17	=17	=17	=17
1E	2r	1B	2e/	2g#/
.	2G#/	.	2e/	2b\
=18	=18	=18	=18	=18
4AA/	4.A/	4r	2.e/	2cc\
2C/	.	4E/	.	.
.	8B\	.	.	.
.	4c\	[2G/	.	2g/
4BB/	4d\	.	4d/	.
=19	=19	=19	=19	=19
1AA	4e\	4G/]	4c#/	1a
.	2d\	4F/	4d/	.
.	.	2E/	2e/	.
.	4c#\	.	.	.
=20	=20	=20	=20	=20
1D	1d	2D/	4f/	1a
.	.	.	2d/	.
.	.	[2d\	.	.
.	.	.	4d/	.
=21	=21	=21	=21	=21
1r	2.A/	2d\]	2f/	1r
.	.	2c#\	4e/	.
.	4A/	.	4e/	.
=22	=22	=22	=22	=22
1r	2B-\	2d\	4d/	2r
.	.	.	4f/	.
.	4B-\	4d\	4f/	[2dd\
.	4B-\	4d\	4g/	.
=23	=23	=23	=23	=23
1r	4A/	2.e\	2.a/	2dd\]
.	4A/	.	.	.
.	4A/	.	.	2cc#\
.	4A/	4A/	4e/	.
=24	=24	=24	=24	=24
2r	8D/L	4A/	8f/L	2dd\
.	8E/J	.	8g/J	.
.	8F/L	4A/	8a/L	.
.	8G/J	.	8g/J	.
[2A\	4A/	8D/L	2f/	4dd\
.	.	8E/J	.	.
.	4A/	8F/L	.	4dd\
.	.	8G/J	.	.
=25	=25	=25	=25	=25
2A\]	4r	4A/	4e/	2cc#\
.	4e\	4A/	4a/	.
2A\	4e\	2r	4a/	2r
.	4f\	.	4a/	.
=26	=26	=26	=26	=26
1B-	8f\L	1r	8d/L	4r
.	8e\J	.	8e/J	.
.	8d\L	.	8f/L	4dd\
.	8e\J	.	8e/J	.
.	[2f\	.	8d/L	4dd\
.	.	.	8c/J	.
.	.	.	8d/L	4dd\
.	.	.	8e/J	.
=27	=27	=27	=27	=27
2B-\	4f\]	4r	2.f/	8d/L
.	.	.	.	8e/J
.	4d\	4d\	.	8f/L
.	.	.	.	8e/J
2B-\	2r	4d\	.	8d/L
.	.	.	.	8e/J
.	.	4d\	4d/	8f/L
.	.	.	.	8g/J
=28	=28	=28	=28	=28
4A\	4r	8c\L	8e/L	8a/L
.	.	8B\J	8d/J	8g/J
4AA/	4A/	8A/L	8c/L	8f/L
.	.	8B/J	8d/J	8g/J
4AA/	4A/	8c\L	4.e/	8a/L
.	.	8d\J	.	8b/J
4AA/	4A/	8e\L	.	8cc\L
.	.	8c\J	8f/	8a\J
=29	=29	=29	=29	=29
8GG/L	4d\	4d\	2g/	8b\L
8AA/J	.	.	.	8cc\J
8BB/L	8c\L	8D/L	.	2dd\
8C/J	8B\J	8E/J	.	.
8D\L	4.A/	8F/L	[2f/	.
8E\J	.	8G/J	.	.
8F\L	.	8A/L	.	8cc\L
8G\J	8G/	8B/J	.	8b\J
=30	=30	=30	=30	=30
2A\	4.F/	4c\	2f/]	1a
.	.	2d\	.	.
.	8G/	.	.	.
2AA/	2A/	.	2e/	.
.	.	4c#\	.	.
=31	=31	=31	=31	=31
1r	4D/	2d\	2d/	1a
.	4D/	.	.	.
.	[2d\	2D/	2f/	.
=32	=32	=32	=32	=32
1r	4d\]	[1A	[1e	2r
.	8c\L	.	.	.
.	8B\J	.	.	.
.	[2c\	.	.	2a/
=33	=33	=33	=33	=33
2r	2c\]	2A/]	2e/]	[1ee
2AA/	2c\	2A/	2e/	.
=34	=34	=34	=34	=34
2E\	4B\	2G#/	1e	2ee\]
.	4E/	.	.	.
2E\	4.e\	4r	.	2b\
.	.	4e\	.	.
.	8d\	.	.	.
=35	=35	=35	=35	=35
4AA/	4.c\	4.e\	1r	4cc\
4A\	.	.	.	4cc\
.	8B\	8d\	.	.
4A\	4A/	4c\	.	4cc\
4B\	4G/	4B\	.	4dd\
=36	=36	=36	=36	=36
2c\	4r	4A/	4r	2ee\
.	4c\	4A/	4e/	.
2A\	4c\	2r	4e/	2cc\
.	4d\	.	4f/	.
=37	=37	=37	=37	=37
1G	4e\	1r	4g/	4b\
.	4e\	.	4g/	2cc\
.	2d\	.	2g/	.
.	.	.	.	4b\
=38	=38	=38	=38	=38
1C	1c	1r	1g	1cc
=39	=39	=39	=39	=39
1C	1r	1c	1g	1ee
=40	=40	=40	=40	=40
4G\	1r	4B\	4g/	4dd\
4.G\	.	4.B\	4.g/	4.dd\
8G\	.	8B\	8g/	8dd\
4A\	.	4A/	4e/	4cc\
=41	=41	=41	=41	=41
2E\	1r	2G#/	2e/	2b\
4E\	.	4G#/	4e/	4b\
[4E\	.	[4G#/	[4e/	[4b\
=42	=42	=42	=42	=42
4E\]	1r	4G#/]	4e/]	4b\]
4A\	.	4A/	4e/	4cc\
2G\	.	2B\	2g/	2dd\
=43	=43	=43	=43	=43
1G	4r	2B\	1g	1dd
.	8G/	.	.	.
.	8A/	.	.	.
.	4B\	4r	.	.
.	8B\	8G/	.	.
.	8c\	8A/	.	.
=44	=44	=44	=44	=44
1r	2d\	4B\	4r	2r
.	.	8B\	8G/	.
.	.	8c\	8A/	.
.	4.d\	2d\	4B/	4r
.	.	.	8B/	8d/
.	8c\	.	8c/	8e/
=45	=45	=45	=45	=45
4r	2B-\	4r	4d/	4f/
8D\	.	4.f\	4.f/	8f/
8E\	.	.	.	8g/
4F\	4A/	.	.	2a/
.	.	8e\	8g/	.
8F\	4A/	4d\	4a/	.
8G\	.	.	.	.
=46	=46	=46	=46	=46
4A\	2r	2c\	2e/	4r
4.A\	.	.	.	8a/
.	.	.	.	8b\
.	8A/	4c\	2a/	4cc\
8G\	8B\	.	.	.
4F\	4c\	8A/	.	8cc\
.	.	8B\	.	8dd\
=47	=47	=47	=47	=47
[1E	8c\	4c\	4.g/	4ee\
.	8d\	.	.	.
.	2e\	8c\	.	4.ee\
.	.	8d\	8g/	.
.	.	4e\	4g/	.
.	.	.	.	8dd\
.	[4E/	[4e\	[4g/	4cc\
=48	=48	=48	=48	=48
1E]	8E/]	8e\]	8g/]	4b\
.	8G/	8d\	8g/	.
.	4A/	4c\	4e/	2a/
.	2B/	2B\	2e/	.
.	.	.	.	4g#/
=49	=49	=49	=49	=49
1AA	1c#	1A	1e	1a
=50	=50	=50	=50	=50
1D	1d	1A	1f	2r
.	.	.	.	[2dd\
=51	=51	=51	=51	=51
1D	1d	1A	1f	2dd\]
.	.	.	.	2a/
=52	=52	=52	=52	=52
4D\	4d\	4A/	4f/	4a/
2AA/	2c#\	2A/	2e/	2a/
4D\	4d\	4A/	4f/	4a/
=53	=53	=53	=53	=53
1GG	1d	1G	2g/	1b-
.	.	.	2d/	.
=54	=54	=54	=54	=54
1D	1d	1F#	1r	1a
=55	=55	=55	=55	=55
1r	2.d\	1r	2.f/	2r
.	.	.	.	[2a/
.	8c\	.	8e/	.
.	8B\	.	8d/	.
=56	=56	=56	=56	=56
1r	4c\	1r	4e/	4a/]
.	4c\	.	4e/	8g/
.	.	.	.	8f/
.	4B\	.	4d/	4g/
.	4c\	.	4e/	4g/
=57	=57	=57	=57	=57
1r	4A/	1r	4c#/	2f/
.	4B-\	.	4d/	.
.	4A/	.	4c#/	2f/
.	4B-\	.	4d/	.
=58	=58	=58	=58	=58
1r	4A/	1r	4c#/	4f/
.	4B-\	.	4d/	4f/
.	4G/	.	4d/	2e/
.	4A/	.	4c#/	.
=59	=59	=59	=59	=59
2r	2D/	1r	1d	1d
[2D\	[2F/	.	.	.
=60	=60	=60	=60	=60
4D\]	4F/]	2.A/	1r	1r
8C/	8E/	.	.	.
8BB/	8D/	.	.	.
4C/	4E/	.	.	.
4C/	4E/	8G/	.	.
.	.	8F/	.	.
=61	=61	=61	=61	=61
4BB/	4D/	4G/	1r	1r
4C/	4E/	4G/	.	.
4AA/	4C#/	4F/	.	.
4BB-/	4D/	4F/	.	.
=62	=62	=62	=62	=62
4AA/	4C#/	2F/	1r	1r
4BB-/	4D/	.	.	.
4AA/	4C#/	2F/	.	.
4BB-/	4D/	.	.	.
=63	=63	=63	=63	=63
4GG/	4D/	2E/	1r	1r
4AA/	4C#/	.	.	.
2D\	2D/	2D/	.	.
=64	=64	=64	=64	=64
1D	1A	1d	1f	2r
.	.	.	.	[2dd\
=65	=65	=65	=65	=65
1D	1A	1d	1f	2dd\]
.	.	.	.	2a/
=66	=66	=66	=66	=66
4D\	4A/	4d\	4f/	4a/
2AA/	2A/	2c#\	2e/	2a/
4D\	4A/	4d\	4f/	4a/
=67	=67	=67	=67	=67
1GG	1G	1d	2g/	1b-
.	.	.	2d/	.
=68	=68	=68	=68	=68
1D	1F#	1d	1r	1a
=69	=69	=69	=69	=69
1r	1r	2.d\	2.f/	2r
.	.	.	.	[2a/
.	.	8c\	8e/	.
.	.	8B\	8d/	.
=70	=70	=70	=70	=70
1r	1r	4c\	4e/	4a/]
.	.	4c\	4e/	8g/
.	.	.	.	8f/
.	.	4B\	4d/	4g/
.	.	4c\	4e/	4g/
=71	=71	=71	=71	=71
1r	1r	4A/	4c#/	2f/
.	.	4B-\	4d/	.
.	.	4A/	4c#/	2f/
.	.	4B-\	4d/	.
=72	=72	=72	=72	=72
1r	1r	4A/	4c#/	4f/
.	.	4B-\	4d/	4f/
.	.	4G/	4d/	2e/
.	.	4A/	4c#/	.
=73	=73	=73	=73	=73
2r	1r	2D/	1d	1d
[2D\	.	[2F/	.	.
=74	=74	=74	=74	=74
4D\]	2.A/	4F/]	1r	1r
8C/	.	8E/	.	.
8BB/	.	8D/	.	.
4C/	.	4E/	.	.
4C/	8G/	4E/	.	.
.	8F/	.	.	.
=75	=75	=75	=75	=75
4BB/	4G/	4D/	1r	1r
4C/	4G/	4E/	.	.
4AA/	4F/	4C#/	.	.
4BB-/	4F/	4D/	.	.
=76	=76	=76	=76	=76
4AA/	2F/	4C#/	1r	1r
4BB-/	.	4D/	.	.
4AA/	2F/	4C#/	.	.
4BB-/	.	4D/	.	.
=77	=77	=77	=77	=77
4GG/	2E/	4D/	2r	2r
4AA/	.	4C#/	.	.
2D\	2D/	4D/	[2d/	[2f/
.	.	4A/	.	.
=78	=78	=78	=78	=78
1AA	2r	4A/	4d/]	4f/]
.	.	4A/	8c#/	8e/
.	.	.	8B/	8d/
.	4r	2A/	4c#/	4e/
.	4A/	.	4d/	4f/
=79	=79	=79	=79	=79
2AA/	4A/	4r	4c#/	4e/
.	4A/	4F/	4d/	4f/
2AA/	4A/	4.A/	4c#/	4e/
.	4F/	.	4d/	4a/
.	.	8B\	.	.
=80	=80	=80	=80	=80
2AA/	4.A/	8c\L	4e/	[1a
.	.	8B\J	.	.
.	.	8A/L	4.f/	.
.	8B\	8G/J	.	.
2AA/	8c\L	4A/	.	.
.	8B\J	.	8e/	.
.	8A/L	4F/	4d/	.
.	8G/J	.	.	.
=81	=81	=81	=81	=81
1AA	4A/	4E/	4c#/	1a]
.	4F/	8F/L	2d/	.
.	.	8G/J	.	.
.	2E/	2A/	.	.
.	.	.	4c#/	.
=82	=82	=82	=82	=82
1D	1D	1A	1d	1a
==	==	==	==	==
*-	*-	*-	*-	*-
!!!ENC: Craig Stuart Sapp
!!!END: 2004/12/10/
